src/icons/web-select-svgrepo-com.svg

<?xml version="1.0" encoding="utf-8"?><!-- Uploaded to: SVG Repo, www.svgrepo.com, Generator: SVG Repo Mixer Tools -->
<svg width="800px" height="800px" viewBox="0 0 64 64" fill="none" xmlns="http://www.w3.org/2000/svg">
<path fill-rule="evenodd" clip-rule="evenodd" d="M39.7958 47.9527L38.8174 46.002C38.8174 45.7769 31.868 42.2756 30.8895 41.5003C30.162 40.9001 31.2909 39.4495 32.6959 39.6496C33.4736 39.7496 35.28 40.9001 35.6563 40.675C36.0326 40.4499 34.9538 38.2741 34.9538 38.2741L31.7927 31.2964C31.7676 31.0213 31.8178 30.7712 31.9432 30.5211C32.0687 30.296 32.2694 30.096 32.5202 29.9959C32.7711 29.8959 33.0471 29.8459 33.298 29.9209C33.5489 29.9709 33.7997 30.121 33.9754 30.321L35.6312 33.9224C35.7065 33.5723 35.9072 33.2472 36.1831 32.9971C36.4591 32.747 36.8103 32.6219 37.1616 32.5969C37.4124 32.6219 37.6633 32.6969 37.8891 32.822C38.1149 32.947 38.3156 33.0971 38.4912 33.2972C38.4912 33.2972 39.8209 31.4715 41.1757 33.1971C41.9283 32.4469 42.6559 32.0967 43.5841 32.6469C45.5661 37.4237 47.0714 39.4495 46.5195 41.5753L47.8241 44.5014L39.7958 47.9527Z" fill="#2A2941"/>
<path d="M37.3874 36.7985L35.8068 33.2971" stroke="#2A2941" stroke-width="2.0336" stroke-miterlimit="10" stroke-linecap="square"/>
<path d="M40.1972 36.3484L38.5916 32.697" stroke="#2A2941" stroke-width="2.0336" stroke-miterlimit="10" stroke-linecap="square"/>
<path fill-rule="evenodd" clip-rule="evenodd" d="M42.8064 35.9482L41.7025 33.4973L41.3262 32.5969" fill="#2A2941"/>
<path d="M42.8064 35.9482L41.7025 33.4973L41.3262 32.5969" stroke="#2A2941" stroke-width="2.0336" stroke-miterlimit="10" stroke-linecap="square"/>
<path fill-rule="evenodd" clip-rule="evenodd" d="M21.356 19.5169C23.4383 18.7166 25.6963 18.5665 27.8539 19.0417C30.0114 19.5169 31.9934 20.6423 33.5238 22.2429C35.0542 23.8435 36.0828 25.8693 36.4591 28.0451C36.8354 30.221 36.5845 32.4718 35.6814 34.4976C34.7782 36.5234 33.3231 38.249 31.4415 39.4495C29.5599 40.6499 27.3772 41.2752 25.1694 41.2251C22.9366 41.1751 20.779 40.4999 18.9475 39.2244C17.1161 37.9739 15.7112 36.1982 14.8833 34.1475C13.7794 31.3464 13.8546 28.2452 15.0589 25.4942C16.3133 22.7681 18.5461 20.5923 21.356 19.5169Z" fill="#2A2941"/>
<path fill-rule="evenodd" clip-rule="evenodd" d="M21.08 18.7916L20.779 18.8916L21.08 18.7916C18.8723 19.6919 16.9656 21.2175 15.6359 23.1932C14.3062 25.169 13.5787 27.4949 13.5536 29.8708C13.5285 32.2467 14.2309 34.5976 15.5355 36.5733C16.8401 38.5741 18.7217 40.1247 20.9295 41.05C23.1373 41.9754 25.5708 42.2255 27.904 41.8003C30.2623 41.3501 32.4199 40.2247 34.1259 38.5491C35.8319 36.8734 37.011 34.7476 37.4877 32.3967C37.9644 30.0709 37.7637 27.6449 36.8605 25.4191C36.2584 23.9435 35.3803 22.618 34.2764 21.4676C33.1474 20.3422 31.8178 19.4418 30.3627 18.8166C28.9075 18.1913 27.327 17.8662 25.7213 17.8662C24.1157 17.8912 22.5351 18.1913 21.08 18.7916ZM21.632 20.2421L21.933 20.1171L21.632 20.2421C23.5638 19.4918 25.6712 19.3418 27.6782 19.7919C29.6853 20.2421 31.5418 21.2925 32.9718 22.7681C34.4019 24.2686 35.3552 26.1444 35.7064 28.1701C36.0577 30.1959 35.8068 32.2967 34.9789 34.1724C34.151 36.0731 32.7711 37.6737 31.04 38.7742C29.309 39.8996 27.2768 40.4748 25.1945 40.4248C23.1373 40.3998 21.1051 39.7495 19.4242 38.5741C17.7182 37.3986 16.4136 35.748 15.6359 33.8473C14.6073 31.2463 14.6825 28.3452 15.7864 25.7942C16.9405 23.2683 19.0479 21.2425 21.632 20.2421Z" fill="#2A2941"/>
<path d="M21.3309 19.6418C18.6967 26.0693 23.1624 37.1985 30.2874 39.9246" stroke="#2A2941" stroke-width="2.0336" stroke-linecap="round" stroke-linejoin="round"/>
<path d="M21.4062 19.592C30.2623 23.1934 32.1188 34.7978 30.5885 40.1999" stroke="#2A2941" stroke-width="2.0336" stroke-linecap="round" stroke-linejoin="round"/>
<path d="M21.4564 40.0247C23.2878 37.9739 25.5708 36.3483 28.1298 35.3229C30.6888 34.2975 33.4485 33.8473 36.2082 34.0474" stroke="#2A2941" stroke-width="2.0336" stroke-linecap="round" stroke-linejoin="round"/>
<path d="M29.5348 19.8669C26.8754 23.4683 21.3058 25.7442 15.9119 25.4441" stroke="#2A2941" stroke-width="2.0336" stroke-linecap="round" stroke-linejoin="round"/>
<path d="M15.385 34.4977C24.3415 30.4712 28.18 28.8205 35.9072 25.5193" stroke="#2A2941" stroke-width="2.0336" stroke-linecap="round" stroke-linejoin="round"/>
<path fill-rule="evenodd" clip-rule="evenodd" d="M22.3846 17.4161C24.4669 16.6158 26.75 16.4407 28.9326 16.9409C31.1153 17.4411 33.0973 18.5415 34.6276 20.1671C36.158 21.7677 37.2117 23.7935 37.5881 25.9943C37.9895 28.1952 37.7135 30.446 36.8103 32.4718C35.9071 34.5226 34.4269 36.2482 32.5453 37.4487C30.6637 38.6491 28.481 39.2744 26.2482 39.2494C24.0153 39.2244 21.8327 38.5241 20.0012 37.2486C18.1698 35.9731 16.7398 34.1974 15.9119 32.1467C14.808 29.3456 14.8832 26.2194 16.0875 23.4434C17.3168 20.6673 19.5747 18.5165 22.3846 17.4161Z" fill="#32EDBB"/>
<path fill-rule="evenodd" clip-rule="evenodd" d="M22.1086 16.6908C19.9009 17.5912 18.0193 19.1418 16.6896 21.1175C15.3599 23.0933 14.6324 25.4191 14.6324 27.795C14.6324 30.1709 15.3097 32.4968 16.6394 34.4976C17.944 36.4733 19.8256 38.0489 22.0334 38.9743C24.2411 39.8996 26.6496 40.1497 29.0079 39.7246C31.3662 39.2744 33.5238 38.149 35.2298 36.4984C36.9358 34.8227 38.1149 32.6969 38.6167 30.371C39.1184 28.0451 38.8926 25.6192 38.0146 23.4184C36.8103 20.4422 34.452 18.0663 31.4665 16.7909C28.456 15.5154 25.0941 15.4904 22.1086 16.6908ZM22.6857 18.1414C24.6175 17.3911 26.75 17.241 28.7821 17.7162C30.8142 18.1664 32.6457 19.2168 34.1008 20.7173C35.5308 22.2179 36.4842 24.0936 36.8605 26.1444C37.2117 28.1952 36.9609 30.296 36.1329 32.1717C35.305 34.0724 33.9252 35.673 32.169 36.7985C30.4128 37.9239 28.3807 38.4991 26.2984 38.4741C24.216 38.4491 22.209 37.7988 20.4779 36.6234C18.7719 35.448 17.4422 33.7973 16.6645 31.8716C15.6359 29.2456 15.6861 26.3445 16.815 23.7685C17.944 21.1925 20.0514 19.1668 22.6857 18.1414Z" fill="#2A2941"/>
<path fill-rule="evenodd" clip-rule="evenodd" d="M21.7574 17.3161C20.3776 20.6674 20.8291 25.2692 22.5853 29.3707C24.3415 33.4723 27.3772 37.0486 31.0902 38.4992C31.2407 38.5492 31.4164 38.5492 31.5669 38.4992C31.7174 38.4242 31.8429 38.3241 31.893 38.1491C31.9181 38.074 31.9432 37.999 31.9432 37.924C31.9432 37.849 31.9181 37.7739 31.893 37.6989C31.868 37.6239 31.8178 37.5488 31.7425 37.4988C31.6923 37.4488 31.6171 37.3988 31.5418 37.3738C28.1298 36.0483 25.345 32.697 23.7394 28.8955C22.1337 25.0941 21.6571 20.8675 22.9366 17.7913C22.9616 17.7163 22.9867 17.6413 22.9867 17.5662C22.9867 17.4912 22.9616 17.4162 22.9366 17.3412C22.9115 17.2661 22.8613 17.1911 22.8111 17.1411C22.7609 17.0911 22.6857 17.041 22.6104 17.016C22.4599 16.966 22.2843 16.966 22.1337 17.016C21.933 17.041 21.8076 17.1661 21.7574 17.3161Z" fill="#2A2941"/>
<path fill-rule="evenodd" clip-rule="evenodd" d="M22.209 18.0413C24.1659 18.9166 25.897 20.1921 27.327 21.7927C28.7319 23.3933 29.7856 25.2941 30.3878 27.3448C31.6171 30.7712 31.868 34.4475 31.0651 37.9989C31.0401 38.0739 31.0401 38.149 31.0401 38.249C31.0401 38.349 31.0651 38.3991 31.1153 38.4741C31.1655 38.5491 31.2157 38.5991 31.2658 38.6491C31.3411 38.6992 31.3913 38.7242 31.4916 38.7492C31.6422 38.7992 31.8178 38.7742 31.9683 38.6992C32.1188 38.6241 32.2192 38.4991 32.2694 38.324C33.1224 34.5226 32.8715 30.5961 31.5669 26.9197C30.8895 24.7189 29.7606 22.6681 28.2302 20.9424C26.6998 19.2168 24.8182 17.8412 22.6857 16.8909C22.6104 16.8409 22.5352 16.7908 22.4348 16.7658C22.3344 16.7408 22.2592 16.7408 22.1588 16.7658C22.0585 16.7908 21.9832 16.8409 21.9079 16.8909C21.8327 16.9409 21.7825 17.0409 21.7574 17.116C21.7323 17.191 21.7072 17.291 21.7072 17.3911C21.7072 17.4911 21.7323 17.5661 21.7825 17.6662C21.8327 17.7412 21.8829 17.8162 21.9581 17.8662C22.0334 17.9163 22.1337 17.9663 22.209 17.9663V18.0413Z" fill="#2A2941"/>
<path fill-rule="evenodd" clip-rule="evenodd" d="M22.9616 38.424C24.7429 36.4233 26.9507 34.8727 29.4344 33.8723C31.9181 32.8719 34.6026 32.4468 37.2619 32.6468C37.4124 32.6468 37.5881 32.5968 37.7135 32.4968C37.8389 32.3967 37.9142 32.2467 37.9393 32.0716C37.9393 31.9216 37.8891 31.7465 37.7888 31.6214C37.6884 31.4964 37.5379 31.4214 37.3623 31.3964C34.5022 31.1963 31.6171 31.6465 28.9577 32.7219C26.2984 33.7973 23.915 35.4729 22.0083 37.6237C21.9581 37.6737 21.9079 37.7488 21.8828 37.8238C21.8578 37.8988 21.8578 37.9739 21.8578 38.0739C21.8578 38.1489 21.8828 38.224 21.933 38.299C21.9581 38.374 22.0083 38.424 22.0836 38.4991C22.1337 38.5491 22.209 38.5991 22.2843 38.6241C22.3595 38.6491 22.4348 38.6491 22.5351 38.6491C22.6104 38.6491 22.6857 38.6241 22.7609 38.5741C22.8362 38.5491 22.9115 38.4991 22.9616 38.424Z" fill="#2A2941"/>
<path fill-rule="evenodd" clip-rule="evenodd" d="M30.1118 17.3912C27.5277 20.8675 22.1588 23.0183 16.9656 22.7432C16.7899 22.7432 16.6394 22.7932 16.514 22.8933C16.3885 22.9933 16.3133 23.1684 16.3133 23.3184C16.3133 23.4935 16.3634 23.6436 16.4638 23.7686C16.5641 23.8937 16.7398 23.9687 16.8903 23.9687C22.51 24.2688 28.3054 21.8679 31.0902 18.1165C31.1404 18.0414 31.1655 17.9664 31.1906 17.8914C31.2157 17.8164 31.2157 17.7413 31.1906 17.6413C31.1906 17.5663 31.1404 17.4912 31.1153 17.4162C31.0651 17.3412 31.0149 17.2912 30.9397 17.2411C30.8142 17.1411 30.6386 17.1161 30.4881 17.1411C30.3376 17.1911 30.2121 17.2661 30.1118 17.3912Z" fill="#2A2941"/>
<path fill-rule="evenodd" clip-rule="evenodd" d="M16.6394 33.047C25.6461 29.0204 29.4846 27.3448 37.2368 24.0185C37.3372 23.9935 37.4125 23.9685 37.4877 23.9185C37.563 23.8685 37.6132 23.7934 37.6633 23.7184C37.7135 23.6434 37.7386 23.5433 37.7386 23.4433C37.7386 23.3433 37.7135 23.2682 37.6884 23.1682C37.6633 23.0932 37.5881 23.0181 37.5128 22.9431C37.4375 22.8931 37.3623 22.8431 37.2619 22.8181C37.1616 22.7931 37.0863 22.7931 36.986 22.8181C36.8856 22.8431 36.8103 22.8681 36.7351 22.9181C29.033 26.2194 25.1192 27.92 16.1377 31.9465C16.0373 31.9716 15.962 31.9966 15.8868 32.0716C15.8115 32.1216 15.7613 32.1966 15.7112 32.2717C15.661 32.3467 15.6359 32.4467 15.6359 32.5218C15.6359 32.6218 15.661 32.6968 15.6861 32.7969C15.7112 32.8719 15.7864 32.9469 15.8366 33.022C15.9119 33.072 15.9871 33.122 16.0875 33.147C16.1878 33.172 16.2631 33.172 16.3635 33.147C16.4889 33.122 16.5642 33.097 16.6394 33.047Z" fill="#2A2941"/>
<path fill-rule="evenodd" clip-rule="evenodd" d="M40.9499 45.4268L39.9965 43.4761C39.9965 43.251 33.022 39.7747 32.0436 38.9744C31.316 38.3741 32.445 36.9236 33.8499 37.1237C34.6277 37.2487 36.4591 38.3741 36.8103 38.1491C37.1867 37.924 36.1079 35.7481 36.1079 35.7481L32.9217 28.7455C32.8966 28.4704 32.9467 28.2203 33.0973 27.9952C33.2227 27.7701 33.4234 27.595 33.6743 27.47C33.9252 27.37 34.1761 27.3199 34.452 27.37C34.7029 27.42 34.9538 27.545 35.1294 27.7451L36.7852 31.3465C36.8605 30.9963 37.0612 30.6712 37.3372 30.4211C37.6132 30.171 37.9644 30.046 38.3407 30.021C38.5916 30.046 38.8425 30.121 39.0683 30.221C39.2941 30.3461 39.4948 30.4962 39.6453 30.6962C39.6453 30.6962 40.975 28.8705 42.3297 30.5962C43.0573 29.8459 43.8099 29.4958 44.7382 30.046C46.7202 34.8228 48.2255 36.8736 47.6735 38.9994L48.9781 41.9255L40.9499 45.4268Z" fill="white"/>
<path fill-rule="evenodd" clip-rule="evenodd" d="M35.3552 36.5734H35.2549C34.8534 36.3733 34.4269 36.2483 34.0004 36.1482C33.5238 36.0732 33.022 36.1232 32.5704 36.2983C32.1188 36.4734 31.6923 36.7485 31.3662 37.0986C31.1655 37.2737 31.015 37.4737 30.9146 37.6988C30.8142 37.9239 30.7641 38.174 30.7641 38.4241C30.7641 38.6742 30.8142 38.9243 30.9146 39.1494C31.015 39.3745 31.1655 39.5996 31.3662 39.7496C32.2443 40.4749 37.864 43.351 39.1435 44.1263L40.423 46.7273L50.3329 42.4506L48.7523 38.8993C48.9028 37.9239 48.8025 36.9235 48.4262 35.9982C47.9244 34.4726 46.8958 32.5719 45.6915 29.6708L45.5661 29.3707L45.2901 29.1956C44.7884 28.8705 44.1863 28.7204 43.5841 28.7954C43.1576 28.8455 42.7311 29.0205 42.3799 29.2706C42.0538 29.0455 41.6774 28.9205 41.276 28.8705C40.7241 28.8455 40.1972 28.9955 39.7456 29.3206L39.6453 29.3957C39.269 29.1706 38.8676 29.0455 38.416 29.0205C37.9393 29.0205 37.4626 29.1706 37.0612 29.4207L36.0577 27.2949L35.9824 27.1948C35.6563 26.8197 35.2298 26.5446 34.728 26.4446C34.2513 26.3445 33.7245 26.3945 33.2729 26.5946C32.8213 26.7947 32.445 27.1448 32.1941 27.57C31.9432 27.9951 31.868 28.4953 31.9432 28.9955V29.1206L35.2549 36.2483L35.4054 36.6234L35.3552 36.5734ZM40.9499 45.4268L39.9965 43.476C39.9463 43.2509 33.022 39.7746 32.0436 38.9743C31.316 38.3741 32.445 36.9235 33.8499 37.1236C34.6277 37.2487 36.4591 38.3741 36.8103 38.149C37.1616 37.9239 36.1079 35.7481 36.1079 35.7481L32.9217 28.7454C32.8966 28.4703 32.9467 28.2202 33.0973 27.9951C33.2227 27.7701 33.4234 27.595 33.6743 27.4699C33.9252 27.3699 34.1761 27.3199 34.452 27.3699C34.7029 27.4199 34.9538 27.545 35.1294 27.745L36.8103 31.3464C36.8856 30.9963 37.0863 30.6712 37.3623 30.4211C37.6382 30.171 37.9895 30.0459 38.3658 30.0209C38.6167 30.0459 38.8676 30.1209 39.0934 30.221C39.3191 30.346 39.5198 30.4961 39.6704 30.6962C39.6704 30.6962 41.0001 28.8705 42.3548 30.5961C43.0824 29.8458 43.835 29.4957 44.7633 30.0459C46.7453 34.8227 48.2756 36.8735 47.6986 38.9993L49.0032 41.9254L40.9499 45.4268Z" fill="#2A2941"/>
<path fill-rule="evenodd" clip-rule="evenodd" d="M39.3693 34.4727L37.3874 30.021L36.4591 30.4462L38.4411 34.8978L39.3693 34.4727Z" fill="#2A2941"/>
<path fill-rule="evenodd" clip-rule="evenodd" d="M42.0287 34.0975L40.0216 29.5208L39.0683 29.9209L41.0753 34.4976L42.0287 34.0975Z" fill="#2A2941"/>
<path fill-rule="evenodd" clip-rule="evenodd" d="M43.9605 33.4472L42.8566 30.9963L42.4803 30.0959" fill="#FAA2A2"/>
<path fill-rule="evenodd" clip-rule="evenodd" d="M44.6379 33.6974L43.3333 30.7463L42.7312 29.3958L41.7778 29.7959L42.3799 31.1464L43.7096 34.0725L44.6379 33.6974Z" fill="#2A2941"/>
</svg>

<svg xmlns="http://www.w3.org/2000/svg" width="800" height="800" fill="none" viewBox="0 0 64 64"><path fill="#2a2941" fill-rule="evenodd" d="m39.796 47.953-.979-1.951c0-.225-6.949-3.726-7.927-4.502-.728-.6.4-2.05 1.806-1.85.778.1 2.584 1.25 2.96 1.025.377-.225-.702-2.4-.702-2.4l-3.161-6.979a1.4 1.4 0 0 1 .15-.775 1.18 1.18 0 0 1 .577-.525c.251-.1.527-.15.778-.075.25.05.502.2.677.4l1.656 3.601c.075-.35.276-.675.552-.925s.627-.375.979-.4c.25.025.501.1.727.225s.427.275.602.475c0 0 1.33-1.825 2.685-.1.752-.75 1.48-1.1 2.408-.55 1.982 4.777 3.487 6.803 2.935 8.928l1.305 2.926z" clip-rule="evenodd"/><path stroke="#2a2941" stroke-linecap="square" stroke-miterlimit="10" stroke-width="2.034" d="m37.387 36.799-1.58-3.502M40.197 36.348l-1.605-3.651"/><path fill="#2a2941" fill-rule="evenodd" d="m42.806 35.948-1.103-2.45-.377-.901" clip-rule="evenodd"/><path stroke="#2a2941" stroke-linecap="square" stroke-miterlimit="10" stroke-width="2.034" d="m42.806 35.948-1.103-2.45-.377-.901"/><path fill="#2a2941" fill-rule="evenodd" d="M21.356 19.517c2.082-.8 4.34-.95 6.498-.475a11.2 11.2 0 0 1 5.67 3.2 11.17 11.17 0 0 1 2.935 5.803c.376 2.176.125 4.427-.778 6.453a11.3 11.3 0 0 1-4.24 4.952 11.2 11.2 0 0 1-6.272 1.775c-2.232-.05-4.39-.725-6.221-2a11.22 11.22 0 0 1-4.065-5.078 11.25 11.25 0 0 1 .176-8.653c1.254-2.726 3.487-4.902 6.297-5.977" clip-rule="evenodd"/><path fill="#2a2941" fill-rule="evenodd" d="m21.08 18.792-.301.1za12.03 12.03 0 0 0-5.444 4.401 12.2 12.2 0 0 0-2.082 6.678 12 12 0 0 0 1.982 6.702c1.304 2.001 3.186 3.552 5.394 4.477a12.35 12.35 0 0 0 6.974.75 12.1 12.1 0 0 0 6.222-3.25 11.95 11.95 0 0 0 3.362-6.153 12.1 12.1 0 0 0-.627-6.978 12.5 12.5 0 0 0-2.585-3.951 12.6 12.6 0 0 0-3.913-2.651 11.8 11.8 0 0 0-4.642-.95c-1.605.024-3.186.324-4.641.925m.552 1.45.301-.125zc1.932-.75 4.04-.9 6.046-.45s3.864 1.5 5.294 2.976a10.4 10.4 0 0 1 2.734 5.402c.352 2.026.1 4.127-.727 6.002a10.36 10.36 0 0 1-3.939 4.602 10.26 10.26 0 0 1-5.845 1.65 10.34 10.34 0 0 1-5.77-1.85 10.6 10.6 0 0 1-3.79-4.727c-1.028-2.6-.953-5.502.151-8.053 1.155-2.526 3.262-4.552 5.846-5.552" clip-rule="evenodd"/><path stroke="#2a2941" stroke-linecap="round" stroke-linejoin="round" stroke-width="2.034" d="M21.33 19.642c-2.633 6.427 1.832 17.557 8.957 20.283M21.406 19.592C30.262 23.193 32.12 34.798 30.59 40.2"/><path stroke="#2a2941" stroke-linecap="round" stroke-linejoin="round" stroke-width="2.034" d="M21.456 40.025a17.9 17.9 0 0 1 6.674-4.702 18.2 18.2 0 0 1 8.078-1.276M29.535 19.867c-2.66 3.601-8.23 5.877-13.623 5.577M15.385 34.498c8.957-4.027 12.795-5.677 20.522-8.979"/><path fill="#32edbb" fill-rule="evenodd" d="M22.385 17.416a11.26 11.26 0 0 1 6.548-.475c2.182.5 4.164 1.6 5.695 3.226 1.53 1.6 2.584 3.627 2.96 5.827.401 2.201.126 4.452-.778 6.478a11.3 11.3 0 0 1-4.265 4.977 11.46 11.46 0 0 1-6.297 1.8 11.17 11.17 0 0 1-6.247-2 11.5 11.5 0 0 1-4.09-5.102c-1.103-2.801-1.028-5.928.176-8.704a11.43 11.43 0 0 1 6.298-6.027" clip-rule="evenodd"/><path fill="#2a2941" fill-rule="evenodd" d="M22.109 16.69c-2.208.901-4.09 2.452-5.42 4.427a12 12 0 0 0-2.057 6.678c0 2.376.678 4.702 2.007 6.703a12.1 12.1 0 0 0 5.394 4.476 12.33 12.33 0 0 0 6.975.75 12.24 12.24 0 0 0 6.222-3.226 12.2 12.2 0 0 0 3.387-6.127 12 12 0 0 0-.602-6.953c-1.205-2.976-3.563-5.352-6.549-6.627a12.26 12.26 0 0 0-9.357-.1m.577 1.451c1.931-.75 4.064-.9 6.096-.425 2.032.45 3.864 1.5 5.319 3.001a10.6 10.6 0 0 1 2.76 5.427c.35 2.051.1 4.152-.728 6.028a10.46 10.46 0 0 1-3.964 4.627 10.6 10.6 0 0 1-5.87 1.675 10.56 10.56 0 0 1-5.821-1.85 10.6 10.6 0 0 1-3.814-4.752 10.55 10.55 0 0 1 .151-8.103 10.6 10.6 0 0 1 5.87-5.628" clip-rule="evenodd"/><path fill="#2a2941" fill-rule="evenodd" d="M21.757 17.316c-1.38 3.351-.928 7.953.828 12.055s4.792 7.678 8.505 9.128c.15.05.326.05.477 0 .15-.075.276-.175.326-.35.025-.075.05-.15.05-.225a.7.7 0 0 0-.05-.225.4.4 0 0 0-.15-.2.55.55 0 0 0-.201-.125c-3.412-1.326-6.197-4.677-7.803-8.479-1.605-3.8-2.082-8.027-.802-11.104.025-.075.05-.15.05-.225s-.025-.15-.05-.225a.54.54 0 0 0-.126-.2.55.55 0 0 0-.2-.125.78.78 0 0 0-.477 0 .44.44 0 0 0-.377.3" clip-rule="evenodd"/><path fill="#2a2941" fill-rule="evenodd" d="M22.209 18.041a15.1 15.1 0 0 1 5.118 3.752 14.7 14.7 0 0 1 3.06 5.552c1.23 3.426 1.481 7.102.678 10.654-.025.075-.025.15-.025.25s.025.15.075.225.1.125.15.175a.6.6 0 0 0 .227.1c.15.05.326.025.476-.05q.225-.113.301-.375a20.54 20.54 0 0 0-.702-11.404 16.2 16.2 0 0 0-3.337-5.978 16.2 16.2 0 0 0-5.544-4.051c-.076-.05-.15-.1-.251-.125a.5.5 0 0 0-.276 0c-.1.025-.176.075-.251.125a.45.45 0 0 0-.15.225.9.9 0 0 0-.05.275c0 .1.024.175.075.275.05.075.1.15.175.2s.176.1.251.1z" clip-rule="evenodd"/><path fill="#2a2941" fill-rule="evenodd" d="M22.962 38.424c1.78-2 3.989-3.551 6.472-4.552s5.169-1.425 7.828-1.225c.15 0 .326-.05.452-.15.125-.1.2-.25.225-.425 0-.15-.05-.326-.15-.45a.65.65 0 0 0-.427-.226c-2.86-.2-5.745.25-8.404 1.326a18.6 18.6 0 0 0-6.95 4.902c-.05.05-.1.125-.125.2s-.025.15-.025.25q0 .113.075.225c.025.075.075.125.15.2.05.05.126.1.201.125s.15.025.251.025q.112 0 .226-.075a.4.4 0 0 0 .2-.15M30.112 17.391c-2.584 3.477-7.953 5.627-13.146 5.352a.7.7 0 0 0-.452.15c-.125.1-.2.275-.2.425q0 .263.15.45c.1.126.276.2.426.2 5.62.3 11.415-2.1 14.2-5.852a1 1 0 0 0 .1-.225.42.42 0 0 0 0-.25c0-.075-.05-.15-.075-.225a.6.6 0 0 0-.175-.175.58.58 0 0 0-.452-.1.77.77 0 0 0-.376.25M16.64 33.047c9.006-4.027 12.845-5.702 20.597-9.028.1-.025.175-.05.25-.1a.7.7 0 0 0 .176-.2.5.5 0 0 0 .076-.276c0-.1-.025-.175-.05-.275-.026-.075-.1-.15-.176-.225-.075-.05-.15-.1-.251-.125a.5.5 0 0 0-.276 0 .8.8 0 0 0-.25.1 1117 1117 0 0 0-20.598 9.029.5.5 0 0 0-.251.125.7.7 0 0 0-.176.2.5.5 0 0 0-.075.25c0 .1.025.175.05.275.025.075.1.15.15.225.076.05.151.1.251.125s.176.025.276 0c.126-.025.201-.05.276-.1" clip-rule="evenodd"/><path fill="#fff" fill-rule="evenodd" d="m40.95 45.427-.954-1.95c0-.226-6.974-3.702-7.952-4.503-.728-.6.401-2.05 1.806-1.85.778.125 2.61 1.25 2.96 1.025.377-.225-.702-2.4-.702-2.4l-3.186-7.004a1.12 1.12 0 0 1 .175-.75c.126-.225.326-.4.577-.525.251-.1.502-.15.778-.1.25.05.502.175.677.375l1.656 3.601c.076-.35.276-.675.552-.925s.627-.375 1.004-.4c.25.025.502.1.727.2.226.125.427.275.577.475 0 0 1.33-1.826 2.685-.1.727-.75 1.48-1.1 2.408-.55 1.982 4.777 3.487 6.828 2.935 8.953l1.305 2.926z" clip-rule="evenodd"/><path fill="#2a2941" fill-rule="evenodd" d="M35.355 36.573h-.1A5.7 5.7 0 0 0 34 36.148a2.8 2.8 0 0 0-1.43.15c-.451.175-.878.45-1.204.8q-.3.264-.451.6c-.1.226-.15.476-.15.726s.05.5.15.725.25.45.451.6c.878.726 6.498 3.602 7.778 4.377l1.279 2.601 9.91-4.276-1.58-3.552c.15-.975.05-1.976-.327-2.9-.502-1.526-1.53-3.427-2.735-6.328l-.125-.3-.276-.175a2.56 2.56 0 0 0-1.706-.4c-.426.05-.853.224-1.204.475a2.45 2.45 0 0 0-1.104-.4 2.4 2.4 0 0 0-1.53.45l-.1.075a2.6 2.6 0 0 0-1.23-.376c-.477 0-.953.15-1.355.4l-1.003-2.125-.076-.1a2.24 2.24 0 0 0-1.254-.75 2.42 2.42 0 0 0-1.455.15c-.452.2-.828.55-1.079.975-.25.425-.326.925-.25 1.425v.126l3.31 7.127.151.375zm5.595 8.854-.954-1.951c-.05-.225-6.974-3.701-7.952-4.502-.728-.6.401-2.05 1.806-1.85.778.125 2.61 1.25 2.96 1.025.352-.225-.702-2.4-.702-2.4l-3.186-7.004a1.12 1.12 0 0 1 .175-.75c.126-.225.326-.4.577-.525.251-.1.502-.15.778-.1.25.05.502.175.677.375l1.681 3.601c.076-.35.276-.675.552-.925s.627-.375 1.004-.4c.25.025.502.1.727.2.226.125.427.275.577.475 0 0 1.33-1.826 2.685-.1.727-.75 1.48-1.1 2.408-.55 1.982 4.777 3.513 6.828 2.936 8.953l1.304 2.926z" clip-rule="evenodd"/><path fill="#2a2941" fill-rule="evenodd" d="m39.37 34.473-1.983-4.452-.928.425 1.982 4.452zM42.029 34.098l-2.007-4.577-.954.4 2.007 4.577z" clip-rule="evenodd"/><path fill="#faa2a2" fill-rule="evenodd" d="m43.96 33.447-1.103-2.45-.377-.901" clip-rule="evenodd"/><path fill="#2a2941" fill-rule="evenodd" d="m44.638 33.697-1.305-2.95-.602-1.351-.953.4.602 1.35 1.33 2.926z" clip-rule="evenodd"/></svg>
